src/img/social/facebook-m.svg

<svg width="32" height="32" viewBox="0 0 48 48" fill="none" xmlns="http://www.w3.org/2000/svg">
    <path fill-rule="evenodd" clip-rule="evenodd" d="M24 48C37.2548 48 48 37.2548 48 24C48 10.7452 37.2548 0 24 0C10.7452 0 0 10.7452 0 24C0 37.2548 10.7452 48 24 48Z" fill="rgba(255, 255, 255, 0.12)"/>
    <path d="M29.3411 13.0045L26.5188 13C23.3481 13 21.299 15.1059 21.299 18.3653V20.839H18.4614C18.2161 20.839 18.0176 21.0382 18.0176 21.2838V24.868C18.0176 25.1136 18.2164 25.3125 18.4614 25.3125H21.299V34.3566C21.299 34.6022 21.4976 34.8011 21.7428 34.8011H25.4451C25.6903 34.8011 25.8889 34.602 25.8889 34.3566V25.3125H29.2068C29.452 25.3125 29.6506 25.1136 29.6506 24.868L29.6519 21.2838C29.6519 21.1659 29.6051 21.0529 29.522 20.9694C29.4389 20.886 29.3257 20.839 29.2079 20.839H25.8889V18.742C25.8889 17.7341 26.1287 17.2224 27.4394 17.2224L29.3406 17.2217C29.5856 17.2217 29.7841 17.0226 29.7841 16.7772V13.4491C29.7841 13.2039 29.5858 13.005 29.3411 13.0045Z" fill="rgba(255, 255, 255, 0.82)"/>
</svg>

<svg width="32" height="32" viewBox="0 0 48 48" fill="none" xmlns="http://www.w3.org/2000/svg"><path fill-rule="evenodd" clip-rule="evenodd" d="M24 48c13.255 0 24-10.745 24-24S37.255 0 24 0 0 10.745 0 24s10.745 24 24 24z" fill="rgba(255, 255, 255, 0.12)"/><path d="M29.341 13.005L26.52 13c-3.17 0-5.22 2.106-5.22 5.365v2.474h-2.838c-.245 0-.443.2-.443.445v3.584c0 .246.198.445.443.445H21.3v9.044c0 .245.199.444.444.444h3.702c.245 0 .444-.199.444-.444v-9.044h3.318a.444.444 0 00.444-.445v-3.584a.446.446 0 00-.443-.445h-3.32v-2.097c0-1.008.24-1.52 1.551-1.52h1.902c.245 0 .443-.2.443-.445V13.45a.444.444 0 00-.443-.444z" fill="rgba(255, 255, 255, 0.82)"/></svg>
